app/app/components/industry-icon/assets/bank.svg

<svg xmlns="http://www.w3.org/2000/svg" preserveAspectRatio="xMinYMin" viewBox="0 0 24 24"><desc>Saving Bank Streamline Icon: https://streamlinehq.com</desc><path fill="none" stroke="#000" stroke-linecap="round" stroke-linejoin="round" d="M4.452 20.927v-9m-1 9h6m-8.448 2h22m-19.552-11h6m-3 9v-9m2 9v-9m6 9h6m-6-9h6m-5 9v-9m2 9v-9m2 9v-9M2.1 9.032a.5.5 0 0 0 .308.895H21.6a.5.5 0 0 0 .326-.88l-9.133-7.853a.5.5 0 0 0-.633-.015Z"/></svg>

<svg xmlns="http://www.w3.org/2000/svg" viewBox="0 0 24 24" preserveAspectRatio="xMinYMin"><desc>Saving Bank Streamline Icon: https://streamlinehq.com</desc><path fill="none" stroke="#000" stroke-linecap="round" stroke-linejoin="round" d="M4.452 20.927v-9M3.452 20.927h6M1.004 22.927h22M3.452 11.927h6M6.452 20.927v-9M8.452 20.927v-9M14.452 20.927h6M14.452 11.927h6M15.452 20.927v-9M17.452 20.927v-9M19.452 20.927v-9M2.1 9.032a.5.5 0 0 0 .308.895H21.6a.5.5 0 0 0 .326-.88l-9.133-7.853a.5.5 0 0 0-.633-.015Z"/></svg>
